icons/plexis/48/epoptes.svg

<svg viewBox="0 0 48 48" xmlns="http://www.w3.org/2000/svg" xmlns:xlink="http://www.w3.org/1999/xlink">
  <linearGradient id="a" gradientTransform="matrix(0 -1 1 0 -.0000015 47.999998)" gradientUnits="userSpaceOnUse" x1="1" x2="47">
    <stop offset="0" stop-color="#96d250"/>
    <stop offset="1" stop-color="#a0d660"/>
  </linearGradient>
  <radialGradient id="b" cx="24.0000004" cy="24.0000011" gradientUnits="userSpaceOnUse" r="2" xlink:href="#c"/>
  <linearGradient id="c">
    <stop offset="0" stop-color="#fff" stop-opacity=".196"/>
    <stop offset="1" stop-color="#fff" stop-opacity=".098"/>
  </linearGradient>
  <radialGradient id="d" cx="27.5" cy="20.5000003" gradientUnits="userSpaceOnUse" r="3.75" xlink:href="#c"/>
  <path d="m47 24c0 22.703-.297 23-23 23-22.703 0-23-.297-23-23 0-22.703.297-23 23-23 22.703 0 23 .297 23 23z" fill="url(#a)"/>
  <path d="m40 25c0 8.285-6.715 15-15 15-8.285 0-15-6.715-15-15 0-8.285 6.715-15 15-15 8.285 0 15 6.715 15 15m0 0" opacity=".1"/>
  <path d="m39 24c0 8.285-6.715 15-15 15-8.285 0-15-6.715-15-15 0-8.285 6.715-15 15-15 8.285 0 15 6.715 15 15m0 0" fill="#333"/>
  <path d="m36.5 24c0 6.906-5.598 12.5-12.5 12.5-6.902 0-12.5-5.598-12.5-12.5 0-6.902 5.598-12.5 12.5-12.5 6.906 0 12.5 5.598 12.5 12.5m0 0" fill="#45a326"/>
  <path d="m24 24v-12.5l1.25 12.5m-1.25 0" fill="#784420"/>
  <path d="m24 24h-12.5l12.5-1.246m0 1.246" fill="#784420"/>
  <path d="m24 24l3.234 12.07-4.441-11.75m1.207-.324" fill="#333"/>
  <path d="m24 24l-3.234-12.07 4.441 11.75m-1.207.324" fill="#333"/>
  <path d="m24 24l12.07-3.234-11.75 4.441m-.324-1.207" fill="#333"/>
  <path d="m24 24l-12.07 3.238 11.75-4.441m.324 1.203" fill="#333"/>
  <path d="m24 24l6.25 10.824-7.332-10.199m1.082-.625" fill="#333"/>
  <path d="m24 24l-6.25-10.824 7.332 10.199m-1.082.625" fill="#333"/>
  <path d="m24 24l10.824219-6.25-10.199219 7.332031m-.625-1.082031" fill="#333"/>
  <path d="m24 24l-10.824 6.25 10.199-7.328m.625 1.078" fill="#333"/>
  <path d="m24 24l8.84 8.84-9.723-7.957m.883-.883" fill="#784420"/>
  <path d="m24 24l-8.84-8.84 9.723 7.957m-.883.883" fill="#784420"/>
  <path d="m24 24l8.84-8.84-7.957 9.723m-.883-.883" fill="#784420"/>
  <path d="m24 24l-8.84 8.836 7.957-9.723m.883.887" fill="#784420"/>
  <path d="m24 24l10.824 6.25-11.449-5.168m.625-1.082" fill="#333"/>
  <path d="m24 24l-10.824-6.25 11.449 5.168m-.625 1.082" fill="#333"/>
  <path d="m24 24l6.25-10.824219-5.167969 11.449219m-1.082031-.625" fill="#333"/>
  <path d="m24 24l-6.25 10.824 5.168-11.449m1.082.625" fill="#333"/>
  <path d="m24 24l12.07 3.234-12.398-2.027m.324-1.207" fill="#333"/>
  <path d="m24 24l-12.07-3.234 12.398 2.027m-.324 1.207" fill="#333"/>
  <path d="m24 24l3.234-12.07-2.027 12.398m-1.207-.324" fill="#333"/>
  <path d="m24 24l-3.234 12.07 2.027-12.395m1.207.324" fill="#333"/>
  <path d="m23.993 24.06h12.496l-12.499 1.249m0-1.25" fill="#784420"/>
  <path d="m23.993 24.06v12.496l-1.249-12.499m1.25 0" fill="#784420"/>
  <path d="m30.25 24c0 3.453-2.797 6.25-6.25 6.25-3.453 0-6.25-2.797-6.25-6.25 0-3.453 2.801-6.25 6.25-6.25 3.453 0 6.25 2.801 6.25 6.25m0 0" fill="#333"/>
  <path d="m29 24c0 2.762-2.238 5-5 5-2.762 0-5-2.238-5-5 0-2.762 2.238-5 5-5 2.762 0 5 2.238 5 5m0 0" fill="#aa8600"/>
  <circle cx="24" cy="24" fill="url(#b)" fill-rule="evenodd" r="2"/>
  <circle cx="27.5" cy="20.5" fill="url(#d)" r="3.75"/>
  <path d="m30.25 13.18l-5 8.672c.746.434 1.25 1.223 1.25 2.148h10c0-4.633-2.512-8.66-6.25-10.82" fill="#f9f9f9" fill-opacity=".2"/>
</svg>

<svg xmlns="http://www.w3.org/2000/svg" xmlns:xlink="http://www.w3.org/1999/xlink" viewBox="0 0 48 48">
 <defs>
  <linearGradient id="linearGradient3764" x1="1" x2="47" gradientUnits="userSpaceOnUse" gradientTransform="matrix(0,-1,1,0,-1.5e-6,47.999998)">
   <stop style="stop-color:#96d250;stop-opacity:1"/>
   <stop offset="1" style="stop-color:#a0d660;stop-opacity:1"/>
  </linearGradient>
  <radialGradient xlink:href="#linearGradient4306" id="radialGradient4312" cx="19.4" cy="24" r="2" gradientUnits="userSpaceOnUse" gradientTransform="translate(4.6000004,1.1e-6)"/>
  <linearGradient id="linearGradient4306">
   <stop style="stop-color:#fff;stop-opacity:0.196"/>
   <stop offset="1" style="stop-color:#fff;stop-opacity:0.098"/>
  </linearGradient>
  <radialGradient xlink:href="#linearGradient4306" id="radialGradient4322" cx="17.5" cy="20.5" r="3.75" gradientUnits="userSpaceOnUse" gradientTransform="translate(10,3e-7)"/>
 </defs>
 <g>
  
  
  
 </g>
 <g>
  <path d="m 47,24 C 47,46.703 46.703,47 24,47 1.297,47 1,46.703 1,24 1,1.297 1.297,1 24,1 46.703,1 47,1.297 47,24 z" style="fill:url(#linearGradient3764);fill-opacity:1"/>
 </g>
 <g>
  
 </g>
 <path d="m 40 25 c 0 8.285 -6.715 15 -15 15 -8.285 0 -15 -6.715 -15 -15 0 -8.285 6.715 -15 15 -15 8.285 0 15 6.715 15 15 m 0 0" style="fill:#000;opacity:0.1;fill-opacity:1;stroke:none;fill-rule:nonzero"/>
 <g>
  <g>
   <path d="m 39 24 c 0 8.285 -6.715 15 -15 15 -8.285 0 -15 -6.715 -15 -15 0 -8.285 6.715 -15 15 -15 8.285 0 15 6.715 15 15 m 0 0" style="fill:#333;fill-opacity:1;stroke:none;fill-rule:nonzero"/>
   <path d="m 36.5 24 c 0 6.906 -5.598 12.5 -12.5 12.5 -6.902 0 -12.5 -5.598 -12.5 -12.5 0 -6.902 5.598 -12.5 12.5 -12.5 6.906 0 12.5 5.598 12.5 12.5 m 0 0" style="fill:#45a326;fill-opacity:1;stroke:none;fill-rule:nonzero"/>
   <path d="M 24,24 24,11.5 25.25,24 M 24,24" style="fill:#784420;fill-opacity:1;stroke:none;fill-rule:nonzero"/>
   <path d="M 24,24 11.5,24 24,22.754 M 24,24" style="fill:#784420;fill-opacity:1;stroke:none;fill-rule:nonzero"/>
   <path d="M 24,24 27.234,36.07 22.793,24.32 M 24,23.996" style="fill:#333;fill-opacity:1;stroke:none;fill-rule:nonzero"/>
   <path d="M 24,24 20.766,11.93 25.207,23.68 M 24,24.004" style="fill:#333;fill-opacity:1;stroke:none;fill-rule:nonzero"/>
   <path d="M 24,24 36.07,20.766 24.32,25.207 M 23.996,24" style="fill:#333;fill-opacity:1;stroke:none;fill-rule:nonzero"/>
   <path d="M 24,24 11.93,27.238 23.68,22.797 M 24.004,24" style="fill:#333;fill-opacity:1;stroke:none;fill-rule:nonzero"/>
   <path d="M 24,24 30.25,34.824 22.918,24.625 M 24,24" style="fill:#333;fill-opacity:1;stroke:none;fill-rule:nonzero"/>
   <path d="M 24,24 17.75,13.176 25.082,23.375 M 24,24" style="fill:#333;fill-opacity:1;stroke:none;fill-rule:nonzero"/>
   <path d="M 24,24 34.824219,17.75 24.625,25.082031 M 24,24" style="fill:#333;fill-opacity:1;stroke:none;fill-rule:nonzero"/>
   <path d="M 24,24 13.176,30.25 23.375,22.922 M 24,24" style="fill:#333;fill-opacity:1;stroke:none;fill-rule:nonzero"/>
   <path d="m 24,24 8.84,8.84 -9.723,-7.957 M 24,24" style="fill:#784420;fill-opacity:1;stroke:none;fill-rule:nonzero"/>
   <path d="m 24,24 -8.84,-8.84 9.723,7.957 M 24,24" style="fill:#784420;fill-opacity:1;stroke:none;fill-rule:nonzero"/>
   <path d="m 24,24 8.84,-8.84 -7.957,9.723 M 24,24" style="fill:#784420;fill-opacity:1;stroke:none;fill-rule:nonzero"/>
   <path d="m 24,24 -8.84,8.836 7.957,-9.723 M 24,24" style="fill:#784420;fill-opacity:1;stroke:none;fill-rule:nonzero"/>
   <path d="M 24,24 34.824,30.25 23.375,25.082 M 24,24" style="fill:#333;fill-opacity:1;stroke:none;fill-rule:nonzero"/>
   <path d="M 24,24 13.176,17.75 24.625,22.918 M 24,24" style="fill:#333;fill-opacity:1;stroke:none;fill-rule:nonzero"/>
   <path d="M 24,24 30.25,13.175781 25.082031,24.625 M 24,24" style="fill:#333;fill-opacity:1;stroke:none;fill-rule:nonzero"/>
   <path d="M 24,24 17.75,34.824 22.918,23.375 M 24,24" style="fill:#333;fill-opacity:1;stroke:none;fill-rule:nonzero"/>
   <path d="M 24,24 36.07,27.234 23.672,25.207 M 23.996,24" style="fill:#333;fill-opacity:1;stroke:none;fill-rule:nonzero"/>
   <path d="M 24,24 11.93,20.766 24.328,22.793 M 24.004,24" style="fill:#333;fill-opacity:1;stroke:none;fill-rule:nonzero"/>
   <path d="M 24,24 27.234,11.93 25.207,24.328 M 24,24.004" style="fill:#333;fill-opacity:1;stroke:none;fill-rule:nonzero"/>
   <path d="M 24,24 20.766,36.07 22.793,23.675 M 24,23.999" style="fill:#333;fill-opacity:1;stroke:none;fill-rule:nonzero"/>
   <path d="m 23.993 24.06 12.496 0 -12.499 1.249 m 0 -1.25" style="fill:#784420;fill-opacity:1;stroke:none;fill-rule:nonzero"/>
   <path d="m 23.993 24.06 0 12.496 -1.249 -12.499 m 1.25 0" style="fill:#784420;fill-opacity:1;stroke:none;fill-rule:nonzero"/>
   <path d="m 30.25 24 c 0 3.453 -2.797 6.25 -6.25 6.25 -3.453 0 -6.25 -2.797 -6.25 -6.25 0 -3.453 2.801 -6.25 6.25 -6.25 3.453 0 6.25 2.801 6.25 6.25 m 0 0" style="fill:#333;fill-opacity:1;stroke:none;fill-rule:nonzero"/>
   <path d="m 29 24 c 0 2.762 -2.238 5 -5 5 -2.762 0 -5 -2.238 -5 -5 0 -2.762 2.238 -5 5 -5 2.762 0 5 2.238 5 5 m 0 0" style="fill:#aa8600;fill-opacity:1;stroke:none;fill-rule:nonzero"/>
  </g>
  <circle r="2" cy="24" cx="24" style="fill:url(#radialGradient4312);fill-opacity:1;stroke:none;fill-rule:evenodd"/>
  <circle r="3.75" cy="20.5" cx="27.5" style="fill:url(#radialGradient4322);fill-opacity:1;stroke:none"/>
  <path d="m 30.25 13.18 -5 8.672 c 0.746 0.434 1.25 1.223 1.25 2.148 l 10 0 c 0 -4.633 -2.512 -8.66 -6.25 -10.82" style="fill:#f9f9f9;fill-opacity:0.2;stroke:none;fill-rule:nonzero"/>
 </g>
</svg>
